X: 1
P: Miss Campbell
C: by Adam Rennie
R: reel
C: from Barbara McOwen, mod. by T. Traub, 5-27-2005
M: 4/4
L: 1/8
K: G
|: D2|"G"G2 G2 BAGB|d2 d2 dcBc|"G"d2 g2 "C"f2 e2|"G"d4 d2 D2-|D2 D2 FEDF|A2 A2 AGFG|A2 c2 A2 F2 |1"G"G4 G2 :|2 "G"G4 GABc||
|: "G"d3 B G2 G2|"D"c3 A F2 F2|"G"d3 B "Em"G2 G2|"Am"A4 "D"A2 D2|"G"d3 B G2 G2|"Am"c3 A "D"F2 F2|"Em"G2 B2 "D"A3 G| [1 "G"GDEF GABc :| [2"G"G2 z2 z2 |]
